icon-themes/elementary_svg/dbaccess/res/exwarning.svg

<svg viewBox="0 0 16 16" xmlns="http://www.w3.org/2000/svg" xmlns:xlink="http://www.w3.org/1999/xlink"><linearGradient id="a" gradientTransform="matrix(.3333471 0 0 .32559732 -.000332 -.005053)" gradientUnits="userSpaceOnUse" x1="24" x2="24" y1="-14.603537" y2="54.669891"><stop offset="0" stop-color="#fff3cb"/><stop offset=".26238" stop-color="#fdde76"/><stop offset=".66093999" stop-color="#f9c440"/><stop offset="1" stop-color="#e48b20"/></linearGradient><linearGradient id="b" gradientTransform="matrix(.3209283 0 -.00139699 .29826454 -1.319947 -3.536087)" gradientUnits="userSpaceOnUse" x1="29.126724" x2="29.291178" y1="19.787613" y2="57.567127"><stop offset="0" stop-color="#fff"/><stop offset=".56911701" stop-color="#fff" stop-opacity=".235294"/><stop offset=".93297637" stop-color="#fff" stop-opacity=".156863"/><stop offset="1" stop-color="#fff" stop-opacity=".392157"/></linearGradient><linearGradient id="c" gradientUnits="userSpaceOnUse" x1="8" x2="8" y1="16" y2="1"><stop offset="0" stop-color="#634215"/><stop offset="1" stop-color="#93700d"/></linearGradient><g transform="translate(.007255 1)"><path d="m15.393251 13.018518-6.510339-12.0000005c-.187126-.33333228-.5257246-.5185175-.9028246-.5185175-.3770974 0-.7174345.22221995-.9074033.5555552l-6.46185793 11.9999998c-.1521025.296297-.1538414.703705.033445 1 .1872839.296297.48833133.444445.86543143.444445h12.9721914c.3771 0 .717277-.185186.869382-.481483.189811-.296295.191393-.666665.04198-.999999z" fill="url(#a)"/><path d="m14 12.518301c-1.954462-3.4714124-4-7.518301-6.024858-11.018301-1.975142 3.5-3.8706887 7.4457609-5.975142 11.013164-.3189516.522763-.6329068.692927-.4793859.923014.1535186.230089.4184294.04807 1.1467418.06307h10.7955961c.678046.0075.864678.10371.989435-.126372.155674-.230085-.154842-.3856-.452387-.854575z" fill="none" opacity=".6" stroke="url(#b)" stroke-linejoin="round"/><path d="m15.393251 13.018518-6.5103386-12.0000004c-.1871259-.33333278-.525724-.51851758-.9028241-.51851758-.3770979 0-.717435.2222199-.9074038.55555478l-6.46185806 12.0000012c-.1521025.296297-.1538415.703704.033445.999999.1872839.296297.48833126.444445.86543126.444445h12.9721913c.3771 0 .717278-.185185.869383-.481481.189811-.296296.191392-.666666.04198-1.000001z" fill="none" opacity=".4" stroke="#311d00"/><path d="m7 5.0000002v4l.5 1.9999998h1l.5-1.9999998v-4zm1 6.9999998c-.5522847 0-1 .447715-1 1s.4477153 1 1 1 1-.447715 1-1-.4477153-1-1-1z" fill="#fff" opacity=".15"/><path d="m7 4.0000002v4l.5 1.9999996h1l.5-1.9999996v-4zm1 6.9999998c-.5522847 0-1 .447715-1 1s.4477153 1 1 1 1-.447715 1-1-.4477153-1-1-1z" fill="url(#c)"/></g></svg>

<?xml version="1.0" encoding="UTF-8" standalone="no"?>
<svg
   xmlns:dc="http://purl.org/dc/elements/1.1/"
   xmlns:cc="http://creativecommons.org/ns#"
   xmlns:rdf="http://www.w3.org/1999/02/22-rdf-syntax-ns#"
   xmlns:svg="http://www.w3.org/2000/svg"
   xmlns="http://www.w3.org/2000/svg"
   xmlns:xlink="http://www.w3.org/1999/xlink"
   xmlns:sodipodi="http://sodipodi.sourceforge.net/DTD/sodipodi-0.dtd"
   xmlns:inkscape="http://www.inkscape.org/namespaces/inkscape"
   viewBox="0 0 16 16"
   id="svg2"
   version="1.1"
   inkscape:version="0.91 r13725"
   sodipodi:docname="exwarning.svg">
  <metadata
     id="metadata10">
    <rdf:RDF>
      <cc:Work
         rdf:about="">
        <dc:format>image/svg+xml</dc:format>
        <dc:type
           rdf:resource="http://purl.org/dc/dcmitype/StillImage" />
      </cc:Work>
    </rdf:RDF>
  </metadata>
  <defs
     id="defs8">
    <linearGradient
       gradientTransform="matrix(0.3333471,0,0,0.32559732,-3.3227132e-4,-0.00505258)"
       gradientUnits="userSpaceOnUse"
       xlink:href="#linearGradient3846"
       id="linearGradient3042"
       y2="54.669891"
       x2="24"
       y1="-14.603537"
       x1="24" />
    <linearGradient
       id="linearGradient3846">
      <stop
         offset="0"
         style="stop-color:#fff3cb;stop-opacity:1"
         id="stop3848" />
      <stop
         offset="0.26238"
         style="stop-color:#fdde76;stop-opacity:1"
         id="stop3850" />
      <stop
         offset="0.66093999"
         style="stop-color:#f9c440;stop-opacity:1"
         id="stop3852" />
      <stop
         offset="1"
         style="stop-color:#e48b20;stop-opacity:1"
         id="stop3854" />
    </linearGradient>
    <linearGradient
       gradientTransform="matrix(0.3209283,0,-0.00139699,0.29826454,-1.3199469,-3.5360874)"
       gradientUnits="userSpaceOnUse"
       xlink:href="#linearGradient3117"
       id="linearGradient3039"
       y2="57.567127"
       x2="29.291178"
       y1="19.787613"
       x1="29.126724" />
    <linearGradient
       id="linearGradient3117">
      <stop
         offset="0"
         style="stop-color:#ffffff;stop-opacity:1"
         id="stop3119" />
      <stop
         offset="0.56911701"
         style="stop-color:#ffffff;stop-opacity:0.23529412"
         id="stop3121" />
      <stop
         offset="0.93297637"
         style="stop-color:#ffffff;stop-opacity:0.15686275"
         id="stop3123" />
      <stop
         offset="1"
         style="stop-color:#ffffff;stop-opacity:0.39215687"
         id="stop3125" />
    </linearGradient>
    <linearGradient
       gradientUnits="userSpaceOnUse"
       y2="1"
       x2="8"
       y1="16"
       x1="8"
       id="linearGradient4229"
       xlink:href="#linearGradient3856-1-6-5" />
    <linearGradient
       id="linearGradient3856-1-6-5">
      <stop
         offset="0"
         style="stop-color:#634215;stop-opacity:1"
         id="stop3858-0-6-4" />
      <stop
         offset="1"
         style="stop-color:#93700d;stop-opacity:1"
         id="stop3860-2-8-2" />
    </linearGradient>
  </defs>
  <sodipodi:namedview
     pagecolor="#ffffff"
     bordercolor="#666666"
     borderopacity="1"
     objecttolerance="10"
     gridtolerance="10"
     guidetolerance="10"
     inkscape:pageopacity="0"
     inkscape:pageshadow="2"
     inkscape:window-width="2560"
     inkscape:window-height="1375"
     id="namedview6"
     showgrid="true"
     inkscape:zoom="41.7193"
     inkscape:cx="10.265975"
     inkscape:cy="3.9444342"
     inkscape:window-x="0"
     inkscape:window-y="36"
     inkscape:window-maximized="1"
     inkscape:current-layer="svg2">
    <inkscape:grid
       type="xygrid"
       id="grid4186" />
  </sodipodi:namedview>
  <g
     id="g4154"
     transform="translate(0.00725477,1.0000001)">
    <path
       inkscape:connector-curvature="0"
       d="M 15.393251,13.018518 8.882912,1.0185175 C 8.695786,0.68518522 8.3571874,0.5 7.9800874,0.5 7.60299,0.5 7.2626529,0.72221995 7.0726841,1.0555552 L 0.61082617,13.055555 c -0.1521025,0.296297 -0.1538414,0.703705 0.033445,1 C 0.83155507,14.351852 1.1326025,14.5 1.5097026,14.5 l 12.9721914,0 c 0.3771,0 0.717277,-0.185186 0.869382,-0.481483 0.189811,-0.296295 0.191393,-0.666665 0.04198,-0.999999 z"
       id="path11155"
       style="fill:url(#linearGradient3042);fill-opacity:1;fill-rule:nonzero;stroke:none" />
    <path
       inkscape:connector-curvature="0"
       d="M 14,12.518301 C 12.045538,9.0468886 10,5 7.975142,1.5 6,5 4.1044533,8.9457609 2,12.513164 c -0.3189516,0.522763 -0.6329068,0.692927 -0.4793859,0.923014 0.1535186,0.230089 0.4184294,0.04807 1.1467418,0.06307 l 10.7955961,0 c 0.678046,0.0075 0.864678,0.10371 0.989435,-0.126372 C 14.608061,13.142791 14.297545,12.987276 14,12.518301 Z"
       id="path11159"
       style="opacity:0.6;fill:none;stroke:url(#linearGradient3039);stroke-width:1;stroke-linejoin:round;stroke-miterlimit:4;stroke-dasharray:none;stroke-opacity:1" />
    <path
       inkscape:connector-curvature="0"
       d="M 15.393251,13.018518 8.8829124,1.0185176 C 8.6957865,0.68518482 8.3571884,0.50000002 7.9800883,0.50000002 c -0.3770979,0 -0.717435,0.2222199 -0.9074038,0.55555478 L 0.61082644,13.055556 c -0.1521025,0.296297 -0.1538415,0.703704 0.033445,0.999999 C 0.83155534,14.351852 1.1326027,14.5 1.5097027,14.5 l 12.9721913,0 c 0.3771,0 0.717278,-0.185185 0.869383,-0.481481 0.189811,-0.296296 0.191392,-0.666666 0.04198,-1.000001 z"
       id="path11155-59"
       style="color:#000000;display:inline;overflow:visible;visibility:visible;opacity:0.4;fill:none;stroke:#311d00;stroke-width:0.99999976;stroke-linecap:butt;stroke-linejoin:miter;stroke-miterlimit:4;stroke-dasharray:none;stroke-dashoffset:0;stroke-opacity:1;marker:none;enable-background:accumulate" />
    <path
       inkscape:connector-curvature="0"
       id="path4231"
       d="m 7,5.0000002 0,4 L 7.5,11 l 1,0 0.5,-1.9999998 0,-4 z M 8,12 c -0.5522847,0 -1,0.447715 -1,1 0,0.552285 0.4477153,1 1,1 0.5522847,0 1,-0.447715 1,-1 0,-0.552285 -0.4477153,-1 -1,-1 z"
       style="opacity:0.15;fill:#ffffff;fill-opacity:1;stroke:none;stroke-width:2;stroke-linecap:butt;stroke-linejoin:round;stroke-miterlimit:4;stroke-dasharray:none;stroke-opacity:1" />
    <path
       inkscape:connector-curvature="0"
       style="opacity:1;fill:url(#linearGradient4229);fill-opacity:1;stroke:none;stroke-width:2;stroke-linecap:butt;stroke-linejoin:round;stroke-miterlimit:4;stroke-dasharray:none;stroke-opacity:1"
       d="m 7,4.0000002 0,4 0.5,1.9999996 1,0 0.5,-1.9999996 0,-4 z M 8,11 c -0.5522847,0 -1,0.447715 -1,1 0,0.552285 0.4477153,1 1,1 0.5522847,0 1,-0.447715 1,-1 0,-0.552285 -0.4477153,-1 -1,-1 z"
       id="path4156" />
  </g>
</svg>
